X: 1
T:the Morning Dew
T:the Hare in the Heather
R:Reel
O:Ireland
M:4/4
K:EDor
E3(B B)AFD|EBEB ADFD|E3B BAFA|BcdB ADFA::
B2eB fBeB|B2dB ADFD|B2eB fBec|dcdB ADFA|\
B2eB fBeB|B2dB ADFA|
(3Bcd ef gfge|dcdB ADFA||\
B2GB FBEB|B2dB ADFD|
B2GB FBEB|dcdB ADFA|\
B2GB FBEB|B2dB ADFA|BAGF EFGA|BcdB ADFD|]
